prologues := 3;

pickup pencircle

beginfig(1)
draw (0,-12) -- (-7,8);
draw (-1,-9) -- (5,9); 
draw (0,-9) -- (6,9); 
draw (0,-12) -- (7,9); 
draw (-5,3) -- (4,3); 
draw (-9,9) -- (-3,9); 
draw (2,9) -- (9,9); 
draw (-7,8) -- (-8,9); 
draw (-7,8) -- (-5,9); 
draw (5,8) -- (3,9); 
draw (5,7) -- (4,9); 
draw (6,7) -- (8,9);
endfig
end