prologues := 3;     % sortie EPS

beginfig(2);
pickup pencircle xscaled 1 yscaled 2 rotated -45 ;
draw (3,7)..(7,15)..(25,15)..(30,0) --(30,-20)..(32,-26)..(37,-30);
draw (30,0)..(5,-5)..(0,-15)..(10,-30)..(29,-15)--(30,-10);
endfig;
end
