
beginfig(3)
pickup penrazor xscaled 4.8pt yscaled 0.1pt rotated 33;
draw (20,20) .. (40,40) .. (60,60) .. (80,80) -- (0,0) --- cycle ;
draw (20,50) -- (25,10) -- cycle ;
draw (10,50) -- (10,10) -- (50,10) ;
draw (10,50) -- (50,50) ;
draw (10,35) -- (35,35) ;
endfig;
end
