beginfig(3)
pickup penrazor xscaled 2pt rotated -33;
    draw (03,02) --  (03,17) {down}..{down} (10,03);

pickup penrazor xscaled 1pt;
    draw (10,03) -- (10,02) -- (10,03);

pickup penrazor xscaled 2pt rotated 33;
    draw (10,03) {up}..{up} (17,17) -- (17,02);   
 endfig;
    end

