beginfig(6)
    pickup penrazor xscaled 0.5pt rotated -33;
% y-2 
%       draw (03,17) -- (03,03) {dir-40}..{dir43} (10,17);
% y-3
 %      draw (03,17) -- (03,03) -- (03,10) {dir-40}..{dir43} (10,17);

% y-4
       draw (03,17) -- (03,03) -- (03,10) {dir-40}..{dir43} (10,17);
draw (03,10) {dir40}..{dir-43} (10,03);

 endfig;
    end

